public/icons/logo.svg

<?xml version="1.0" encoding="utf-8"?><!-- Uploaded to: SVG Repo, www.svgrepo.com, Generator: SVG Repo Mixer Tools -->
<svg width="800px" height="800px" viewBox="0 0 24 24" fill="none" xmlns="http://www.w3.org/2000/svg">
<path d="M9 22H15C20 22 22 20 22 15V9C22 4 20 2 15 2H9C4 2 2 4 2 9V15C2 20 4 22 9 22Z" stroke="#ff8800" stroke-width="1.5" stroke-linecap="round" stroke-linejoin="round" fill="#262626"/>
<path fill="none" d="M6.89001 9C7.87001 9.49 8.71001 10.23 9.32001 11.15C9.67001 11.67 9.67001 12.34 9.32001 12.86C8.71001 13.77 7.87001 14.51 6.89001 15" stroke="#ff8800" stroke-width="1.5" stroke-linecap="round" stroke-linejoin="round"/>
<path d="M13 15H17" stroke="#ff8800" stroke-width="1.5" stroke-linecap="round" stroke-linejoin="round"/>
</svg>

<svg width="800" height="800" viewBox="0 0 24 24" fill="none" xmlns="http://www.w3.org/2000/svg"><path d="M9 22h6c5 0 7-2 7-7V9c0-5-2-7-7-7H9C4 2 2 4 2 9v6c0 5 2 7 7 7z" stroke="#f80" stroke-width="1.5" stroke-linecap="round" stroke-linejoin="round" fill="#262626"/><path d="M6.89 9c.98.49 1.82 1.23 2.43 2.15.35.52.35 1.19 0 1.71-.61.91-1.45 1.65-2.43 2.14M13 15h4" stroke="#f80" stroke-width="1.5" stroke-linecap="round" stroke-linejoin="round"/></svg>
